!!!OTL: ES GIENG EIN KNAB SPAZIEREN
!!!ARE: Europa, Mitteleuropa, Italia, Tirol, Meran
!!!SCT: E0197B
!!!YEM: Copyright 1995, estate of Helmut Schaffrath.
**kern
*ICvox
*Ivox
*M2/4
*k[b-]
*F:
{16f
16a
=1
8cc
8cc
8cc
16a
16f
=2
8dd
8cc
8r}
{16a
16cc
=3
8b-
8b-
8a
16cc
16a
=4
4g
8r}
{16g
16a
=5
8b-
8b-
8b-
16a
16g
=6
16a
16b-
8cc
8r}
{16b-
16dd
=7
8cc
16cc
16b-
8a
8g
=8
4f
8r}
==
!!!AGN: erzaehlendes Volks - Lied, Tod, Toten - Sage, Grabesstimme
!!!ONB: ESAC (Essen Associative Code) Database: ERK1
!!!AMT: simple duple
!!!AIN: vox
!!!EED: Helmut Schaffrath
!!!EEV: 1.0
*-
